X: 78
T: The Geese In The Bog
R: jig
M: 6/8
L: 1/8
K: Amin
|:eEE GEE|eEE GEE|eEE GED| EAA A2B|eEE GEE|
eEE GEE|cBA GED| EAA A2B:|cde ged| eaa ged|
cde ged| eaa a2B|cde ged| eaa ged| cBA GED| EAA A2B:|
F: https://thesession.org/tunes/43#setting12463 - replace c by e.

